img/cassette-import.svg

<svg width="19" height="19" viewBox="0 0 19 19" fill="none" xmlns="http://www.w3.org/2000/svg">
<path d="M13.8997 6C13.8997 5.58579 13.5639 5.25 13.1497 5.25C12.7354 5.25 12.3997 5.58579 12.3997 6C12.3997 6.41421 12.7354 6.75 13.1497 6.75C13.5639 6.75 13.8997 6.41421 13.8997 6Z" fill="white"/>
<path d="M5.64966 5.25C6.06387 5.25 6.39966 5.58579 6.39966 6C6.39966 6.41421 6.06387 6.75 5.64966 6.75C5.23544 6.75 4.89966 6.41421 4.89966 6C4.89966 5.58579 5.23544 5.25 5.64966 5.25Z" fill="white"/>
<path d="M11.6497 6.75V5.25H7.14966V6.75H11.6497Z" fill="white"/>
<path fill-rule="evenodd" clip-rule="evenodd" d="M17.6497 1.5C17.6497 0.671573 16.9781 0 16.1497 0H2.64966C1.82123 0 1.14966 0.671573 1.14966 1.5V10.5C1.14966 11.3284 1.82123 12 2.64966 12H16.1497C16.9781 12 17.6497 11.3284 17.6497 10.5V1.5ZM2.64966 1.5H16.1497V10.5H14.535L14.3689 9.5034C14.2484 8.78012 13.6226 8.25 12.8893 8.25H5.91C5.17674 8.25 4.55096 8.78012 4.43041 9.5034L4.26431 10.5H2.64966V1.5ZM12.8893 9.75H5.91L5.785 10.5H13.0143L12.8893 9.75Z" fill="white"/>
<path d="M9.39966 15.841L8.64966 15.2197L6.17999 12.75L5.11933 13.8107L9.39966 18.091L13.68 13.8107L12.6193 12.75L10.1497 15.2197L9.39966 15.841Z" fill="white"/>
</svg>

<?xml version="1.0" encoding="UTF-8"?>
<svg id="Layer_1" xmlns="http://www.w3.org/2000/svg" version="1.1" viewBox="0 0 19 19">
  <!-- Generator: Adobe Illustrator 29.6.1, SVG Export Plug-In . SVG Version: 2.1.1 Build 9)  -->
  <defs>
    <style>
      .st0 {
        fill: #f179af;
      }
    </style>
  </defs>
  <path class="st0" d="M13.9,6c0-.41-.34-.75-.75-.75s-.75.34-.75.75.34.75.75.75.75-.34.75-.75ZM5.65,5.25c.41,0,.75.34.75.75s-.34.75-.75.75-.75-.34-.75-.75.34-.75.75-.75ZM11.65,6.75v-1.5h-4.5v1.5h4.5ZM17.65,1.5C17.65.67,16.98,0,16.15,0H2.65C1.82,0,1.15.67,1.15,1.5v9c0,.83.67,1.5,1.5,1.5h13.5c.83,0,1.5-.67,1.5-1.5V1.5ZM2.65,1.5h13.5v9h-1.61l-.17-1c-.12-.72-.75-1.25-1.48-1.25h-6.98c-.73,0-1.36.53-1.48,1.25l-.17,1h-1.61V1.5ZM13.01,10.5h-7.23l.12-.75h6.98l.12.75ZM9.4,15.84l-.75-.62-2.47-2.47-1.06,1.06,4.28,4.28,4.28-4.28-1.06-1.06-2.47,2.47-.75.62Z"/>
</svg>
